X:165
T: Die Lindenwirtin (2-59), S. 156f
N: K1140
O: Luxemburg
S: KINTZELE, Guillaume: An der Ucht, Bd. 2, Luxemburg 1927]
N: in der Quelle mit einer 2. Stimme versehen
R: Trink-, Scherzlied]
M: 6/8
L: 1/16
K: C
 | G4G2G3FE2 | A4A2A6
A4A2c2B2A2 | A4G2G6
G4D2D2G2B2 | A6G6
F4F2F2E2D2 | E4G2c6
F4F2F2E2D2 | E4G2c6
c4c2d2c2A2 | A6G6
G4G2G2A2B2 | d6c4z2

